X:373
T: Ist denn Lieben ein Verbrechen (100), S. 250
N: T0262
O: Luxemburg
S: Singendes Volk, Esch-Alzette 1937 posth.]
N: Esch-Alzette, hhh E. Lemmer, vom Vater erlernt
R: Liebeslieder]
M: 3/4
L: 1/8
K: F
cc | c2G2GA | B2A2
AB | A2G2DE | F2z2
cc | f3edc | edd2
cA | c3cdc | A2z2

